X:11
T:Monmouth
C:Roy Watrous, 1951
S:The Watrous Book, 1992
M:2/4
L:1/16
Q:1/4=90
K:A
%%MIDI program 72
%%MIDI transpose 8
%%MIDI ratio 3 1
ec|A2a2 g2a2|baga e2c2|agaf ecAc|dcBA F2E2|A2a2 g2a2|baga e2c2|
agaf ecAc|e2g2 a2::cd|ecAc ecAe|fdBf edA2|agaf ecAc|
dcBA F2cd|ecAc ecAe|fdBf ecA2|agaf ecAc|e2g2 a2:|]

